X: 1
T:Bishop of Bangor's Jig
M:6/8
L:1/8
K:Em
B|efg fge|^def B2e|dcB cBA|B3-B2B|
efg fge|^def B2e|dcB cBA|B3-B2|
B|dBG cAF|BGE AFD|GAB AGF|G3G2||
B|ge^c af^d|bge af^d|efg Be^d|e3-e2:||
